X:2060
T:Foxhunter's Reel, The
O:england
M:4/4
L:1/8
R:reel
K:A
|:e2cA eAcA|eAcA BAFA|e2cA eAcA|BdcA BAFA:|
|:~E3c cBcA|EAcA BAFA|~E3c cBcA|BdcA BAFA:|
|:afec A2ce|aece f~b3|afec ABcA|Bcde f~B3:|
|:eaag ~a3f|eaae faec|eaag ~a3e|faec BABc:|
|:A2cA eAcB|AccA BABc|A2cA eAce|faec BABc:|
